X: 10852
T: Drift, The
R: jig
M: 6/8
K: Eminor
|:dee edB|dee edB|dBB BAG|dBB BAG|
A3 A2E-|E2B AGE|GAA ABG|E2D- D3:|
|:DEG AGG|BGG AGG|EAA BAA|EAA BAA|
dee edB|dee edB|AAA ABG|E2D- D3:|

